!!!!SEGMENT: pl-wumfc--r313--001_paderewski-ignacy-jan--vocal-pieces-op-7-gdy-ostatnia-roza-zwiedla.krn
!!!cenid: 18xx:3386
!!!COM: Paderewski, Ignacy Jan
!!!COM-rismID: pe30029943
!!!CDT: 1860/11/18-1941/06/29
!!!CNT: Polish
!!!GTL: [Vocal pieces op. 7]
!!!OTL: Gdy ostatnia róża zwiędła
!!!OMV: 001
!!!PDT:
!!!AGN:
!!!SMS-siglum: PL-Wumfc
!!!SMS-shelfmark: R313
!!!SMS-shelfwork: 001-001 G
!!!SMS-variant:
!!!SMS-altvar:
!!!NIFC-rismSourceID: 1001159534
!!!NIFC-rismChildID: 1001159535
!!!NIFC-islandoraID: pl-wumfc:730
!!!URL-pdf-islandora: https://repozytorium.nifc.pl/islandora/object/pl-wumfc%3A730/datastream/PDF/view
!!!URL-scan: https://polish.musicsources.pl/pl/lokalizacje/galeria/rekopisy/4734 @EN{Scan on Polish Music Sources Website} @PL{Skany w portalu Dziedzictwo Muzyki Polskiej w otwartym dostępie}
!!!IIIF:
!!!ONB-nifc:
!!!OMD: Moderato.
!!!OMD-mod: Moderato
!!!AIN: 1 piano 1 vox
!!!key: d
**kern	**kern	**dynam	**kern	**dynam	**text	**mod-text	**text	**mod-text
*part2	*part2	*part2	*part1	*part1	*part1	*part1	*part1	*part1
*staff3	*staff2	*	*staff1	*	*staff1	*staff1	*staff1	*staff1
*I"[Piano]	*I"[Piano]	*	*I"[Voice]	*	*	*	*	*
*mI"[Pianoforte]	*mI"[Pianoforte]	*	*mI"[Voce]	*	*	*	*	*
*I'pf	*I'pf	*	*I'V	*	*	*	*	*
*Ipiano	*	*	*Ivox	*	*	*	*	*
*ICklav	*	*	*ICvox	*	*	*	*	*
*IGacmp	*	*	*IGsolo	*	*	*	*	*
*clefF4	*clefG2	*	*clefG2	*	*	*	*	*
*k[b-]	*k[b-]	*	*k[b-]	*	*	*	*	*
*d:	*d:	*	*d:	*	*	*	*	*
*M2/4	*M2/4	*	*M2/4	*	*	*	*	*
=1	=1	=1	=1	=1	=1	=1	=1	=1
*	*^	*	*	*	*	*	*	*
4D\	(8a/L	4f 4d\	p	2r	.	.	.	.	.
.	8dd/J	.	.	.	.	.	.	.	.
(8A\L	4cc 4a 4e 4c/)	4ryyyy	.	.	.	.	.	.	.
8AA\J)	.	.	.	.	.	.	.	.	.
=2	=2	=2	=2	=2	=2	=2	=2	=2	=2
4D\	(8a/L	4f 4d\	.	2r	.	.	.	.	.
.	8dd/J	.	.	.	.	.	.	.	.
(8A\L	4cc 4a 4e 4c/)	4ryyyy	.	.	.	.	.	.	.
8AA\J)	.	.	.	.	.	.	.	.	.
*	*v	*v	*	*	*	*	*	*	*
=3	=3	=3	=3	=3	=3	=3	=3	=3
4D\	(>4a 4f 4d/	.	2r	.	.	.	.	.
.	.	<	.	.	.	.	.	.
4GG\	4g 4d 4B-/	.	.	.	.	.	.	.
=4	=4	=4	=4	=4	=4	=4	=4	=4
*	*^	*	*	*	*	*	*	*
4AA\	8e/L	4c#X 4A\	[	2r	.	.	.	.	.
.	8f/	.	.	.	.	.	.	.	.
4A> 4F 4D\	8d/	4ryyyy	.	.	.	.	.	.	.
.	8f/J)	.	.	.	.	.	.	.	.
=5	=5	=5	=5	=5	=5	=5	=5	=5	=5
*^	*	*	*	*	*	*	*	*	*
4c 4A/	4FF\	8a/L	4ryyyy	.	2r	.	.	.	.	.
.	.	(>8a/J	.	>	.	.	.	.	.	.
4GG\	4ryyyy	8g/L)	4e-X 4B-\	.	.	.	.	.	.	.
.	.	8g/J	.	.	.	.	.	.	.	.
=6	=6	=6	=6	=6	=6	=6	=6	=6	=6	=6
4G/	4AA\	8en/L	4c#X\	]	2r	.	.	.	.	.
.	.	8f/J	.	.	.	.	.	.	.	.
4F/	4D\	4d 4A/	4ryyyy	.	.	.	.	.	.	.
*v	*v	*	*	*	*	*	*	*	*	*
*	*v	*v	*	*	*	*	*	*	*
!!LO:LB:g=original
=7	=7	=7	=7	=7	=7	=7	=7	=7
!	!	!	!	!LO:DY:a	!	!	!	!
4A 4D\	(>4a 4f 4d/	p	8a/	p	Gdy	Gdy	Ro-	Ro-
.	.	.	8dd\	.	o-	o-	-sen-	-sen-
4A 4AA\	4cc 4a 4e 4c/)	.	8cc\	.	-sta-	-sta-	-ta-	-ta-
.	.	.	8cc\	.	-tnia	-tnia	-ge	-ge
=8	=8	=8	=8	=8	=8	=8	=8	=8
4F 4BB-\	(>4f 4d 4B-/	.	8b-\	.	ró-	ró-	sind	sind
.	.	.	8f/	.	-ża	-ża	ver-	ver-
4F 4FF\	4a 4f 4c 4A/)	.	8a/	.	zwię-	zwię-	-ron-	-ron-
.	.	.	8a/	.	-dła	-dła,	-nen,	-nen,
=9	=9	=9	=9	=9	=9	=9	=9	=9
4GG\	(>4d 4B- 4G/	.	8g/	.	Rze-	rze-	Lieb-	Lieb-
.	.	.	8g/	.	-kłam	-kłam	-ster,	-ster,
4AA\	4c#<X 4A< 4E</)	.	8.e/	.	chło-	chło-	geh!	geh!
.	.	.	16a/	.	-pcu:	-pcu:	bist	bist
=10	=10	=10	=10	=10	=10	=10	=10	=10
*^	*	*	*	*	*	*	*	*
4A 4F/	4DD\	(>8d/L	<	4a^>/	.	idź!	idź!	frei!	frei!
.	.	8e/	.	.	.	.	.	.	.
4d 4A/	4D\	8f/	.	8r	.	.	.	.	.
.	.	8a/J)	[	8a/	.	Ze-	Ze-	Der	Der
*v	*v	*	*	*	*	*	*	*	*
=11	=11	=11	=11	=11	=11	=11	=11	=11
!	!	!	!LO:MO:mod=!null:null	!	!	!	!	!
!	!	!	!LO:TX:b:Bi:t=cres-cen-do.:problem=dynamics with extention lines	!LO:HP:b:t=cres-cen-do.	!	!	!	!
!	!	!	!	!LO:DY:a	!	!	!	!
!	!	!	!	!LO:HP:a	!	!	!	!
4A 4D\	4dd 4a 4f 4d/	mf	4ff\	sf <	-rwa-	-rwa-	Gold-	Gold-
4F 4FF\	4cc 4a 4e 4c/	.	8ee\	.	-ła	-ła	-fa-	-fa-
.	.	.	8ee\	.	się	się	-den	-den
!!LO:LB:g=original
=12	=12	=12	=12	=12	=12	=12	=12	=12
4F 4BB-\	4b- 4f 4d 4B-/	.	8dd\	.	zło-	zło-	riss	riss
.	.	.	8f/	[	-ta	-ta	ent-	ent-
4D 4DD\	4a 4f 4c 4A/	.	4cc\	.	nić	nić,	-zwei,	-zwei,
=13	=13	=13	=13	=13	=13	=13	=13	=13
4GG\	4g 4d 4B-< 4G</	.	8b-/	.	Któ-	któ-	den	den
.	.	.	8a/	.	-rą	-rą	die	die
4C 4CC\	4e 4c 4G</	.	8g/	.	mi-	mi-	Lieb'	Lieb'
.	.	.	8cc\	.	-łość	-łość	ge-	ge-
=14	=14	=14	=14	=14	=14	=14	=14	=14
*^	*	*	*	*	*	*	*	*
4A/	2C 2FF\	(>8c/L	<	4.cc\	.	przę-	przę-	-spon-	-spon-
!	!	!	!	!	!LO:HP:a	!	!	!	!
.	.	.	.	.	>	.	.	.	.
.	.	8e/	.	.	.	.	.	.	.
4c 4A/	.	8f/	.	.	.	.	.	.	.
.	.	8a/J)	[	8cc\	]	-dła	-dła.	-nen	-nen.
*v	*v	*	*	*	*	*	*	*	*
=15	=15	=15	=15	=15	=15	=15	=15	=15
!	!LO:MO:mod=!LO&colon;TX&colon;a&colon;i&colon;t=Animato	!	!	!	!	!	!	!
!	!null	!	!	!	!	!	!	!
4F\	(>4cc 4a 4f/	p	2r	.	.	.	.	.
!	!LO:MO:mod=!null:null	!	!	!	!	!	!	!
!	!LO:TX:a:i:t=animato.:rj	!	!	!	!	!	!	!
4BB-\	4b- 4f 4d/	.	.	.	.	.	.	.
=16	=16	=16	=16	=16	=16	=16	=16	=16
*	*^	*	*	*	*	*	*	*
4C\	8g/L	4e 4c\	>	2r	.	.	.	.	.
.	8a/J	.	.	.	.	.	.	.	.
4FF\	8f/L	4c 4A\	.	.	.	.	.	.	.
.	8a/J)	.	]]	.	.	.	.	.	.
!!LO:LB:g=original
=17	=17	=17	=17	=17	=17	=17	=17	=17	=17
4AA\	8cc/L	4e 4c\	.	2r	.	.	.	.	.
.	(8cc/J	.	.	.	.	.	.	.	.
4BB-\	8b-/L)	4g 4d\	.	.	.	.	.	.	.
.	(8b-/J	.	.	.	.	.	.	.	.
=18	=18	=18	=18	=18	=18	=18	=18	=18	=18
*^	*	*	*	*	*	*	*	*	*
4ryyyy	4C\	8g/L	4e 4c\	.	2r	.	.	.	.	.
.	.	8a/J	.	.	.	.	.	.	.	.
4A/	4D\	4f 4d/)	4ryyyy	.	.	.	.	.	.	.
*v	*v	*	*	*	*	*	*	*	*	*
*	*v	*v	*	*	*	*	*	*	*
=19	=19	=19	=19	=19	=19	=19	=19	=19
!	!	!	!LO:MO:mod=!LO&colon;TX&colon;a&colon;i&colon;t=Animato	!	!	!	!	!
!	!	!	!LO:TX:a:t=Žywiéj	!	!	!	!	!
2G 2D 2GG\	2b- 2g 2d 2B-/	.	8g/	.	Po-	Po-	Und	Und
.	.	.	8a/	.	-sko-	-sko-	ich	ich
.	.	.	8b-\	.	-czy-	-czy-	liess	liess
.	.	.	8dd\	.	-łam	-łam	ihn,	ihn,
=20	=20	=20	=20	=20	=20	=20	=20	=20
2g 2e 2G\	2bb- 2gg 2dd 2b-\	sf	8ee\	.	jak	jak	sprang	sprang
.	.	.	8dd\	.	naj-	naj-	von	von
.	.	.	8ff\	.	-prę-	-prę-	hin-	hin-
.	.	.	(16ee\LL	.	-dzéj	-dzęj	-nen	-nen,
.	.	.	16dd\JJ)	.	.	.	.	.
=21	=21	=21	=21	=21	=21	=21	=21	=21
4f 4d\	4aa 4ff 4dd 4a\	.	8dd\	.	świé-	świé-	Su-	su-
.	.	.	8a/	.	-žą	-żą	-chte	-chte
4d\	4dd 4a 4f/	.	8a/	.	ni-	ni-	neu-	neu-
.	.	.	8a/	.	-tkę	-tkę	-es	-es
!!LO:PB:g=original
=22	=22	=22	=22	=22	=22	=22	=22	=22
2A\	(>4cc 4a 4e/	>	[2cc\	.	wziąść	wziąć.	Gold	Gold.
!	!	!LO:MO:mod=]]	!	!	!	!	!	!
.	4a 4e 4c/)	]	.	.	.	.	.	.
=23	=23	=23	=23	=23	=23	=23	=23	=23
*	*^	*	*	*	*	*	*	*
!	!	!	!LO:DY:t= :mod=%s	!	!	!	!	!	!
!	!	!	!LO:MO:mod=!LO&colon;DY&colon;ed=	!	!	!	!	!	!
!	!	!	!null	!	!	!	!	!	!
4A: 4FF:\	(8cc/L	4f 4c\	p	4cc\]	.	.	.	.	.
!	!	!	!LO:DY:t=piano.	!	!	!	!	!	!
!	!	!	!LO:MO:mod=.	!	!	!	!	!	!
.	8a/J	.	p	.	.	.	.	.	.
4F\	8a/L	8fL 8d\	.	4r	.	.	.	.	.
!	!	!	!LO:MO:mod=!null:null	!	!	!	!	!	!
!	!	!	!LO:HP:a	!	!	!	!	!	!
.	8a/J	8fJ 8c\	<	.	.	.	.	.	.
=24	=24	=24	=24	=24	=24	=24	=24	=24	=24
!	!	!	!LO:MO:mod=[>	!	!	!	!	!	!
2G 2C\	4cc/	2e-X 2c\	[	2r	.	.	.	.	.
!	!	!	!LO:MO:mod=!null:null	!	!	!	!	!	!
!	!	!	!LO:HP:a	!	!	!	!	!	!
!	!	!	!LO:MO:mod=.	!	!	!	!	!	!
.	.	.	>	.	.	.	.	.	.
.	4g/)	.	]	.	.	.	.	.	.
*	*v	*v	*	*	*	*	*	*	*
=25	=25	=25	=25	=25	=25	=25	=25	=25
*ped	*	*	*	*	*	*	*	*
2G 2D 2GG\	2b- 2g 2d 2B-/	mf	8g/	.	Chcia-	Chcia-	Doch	Doch
.	.	.	8a/	.	-łam	-łam	das	das
.	.	.	8b-\	.	zło-	zło-	Glück	Glück
.	.	.	8dd\	.	-tą	-tą	war	war
=26	=26	=26	=26	=26	=26	=26	=26	=26
!	!	!LO:MO:mod=!null:null	!	!	!	!	!	!
!	!	!LO:DY:t=sf.	!	!	!	!	!	!
2g 2e 2G\	2bb- 2gg 2dd 2b-\	sf	8ee\	.	ni-	ni-	mir	mir
.	.	.	8ff\	.	-tką	-tką	nicht	nicht
.	.	.	(8gg\L	.	prząść	prząść,	hold	hold,
.	.	.	16ff\L	.	.	.	.	.
.	.	.	16ee\JJ)	.	.	.	.	.
!!LO:LB:g=original
=27	=27	=27	=27	=27	=27	=27	=27	=27
4d\	4aa 4ff 4dd 4a\	.	8dd\	.	lecz	lecz	Nichts	nichts
.	.	.	8dd\	.	za-	za-	fand	fand
4E\	4cc 4g 4c/	.	8cc\	.	-bra-	-bra-	ich	ich
!	!	!	!	!LO:HP:a	!	!	!	!
.	.	.	8b-\	>	-kło	-kło	zum	zum
=28	=28	=28	=28	=28	=28	=28	=28	=28
4F\	4a 4f 4c/	.	(8a\L	.	przę-	przę-	Spin-	spin-
.	.	.	8b-\	.	.	.	.	.
4AA\	4cc 4e 4c/	.	8cc\J)	.	.	.	.	.
.	.	.	8cc\	]]	-dzy	-dzy,	-nen	-nen,
=29	=29	=29	=29	=29	=29	=29	=29	=29
4BB-\	4b- 4g 4d/	.	8b-\	.	lecz	lecz	nichts	nichts
!	!	!	!	!LO:MO:mod=!null:null	!	!	!	!
!	!	!	!	!LO:HP:a:t=diminuendo.	!	!	!	!
.	.	.	8b-\	>	za-	za-	fand	fand
4E\	4g 4e 4d/	.	8g/	.	-bra-	-bra-	ich	ich
.	.	.	8b-\	.	-kło	-kło	zum	zum
=30	=30	=30	=30	=30	=30	=30	=30	=30
!LO:MO:mod=*ped:null	!LO:MO:mod=*null:null	!	!	!	!	!	!	!
*null	*ped	*	*	*	*	*	*	*
(8AA\L	4a 4e 4c/	.	[2a/	.	przę-	przę-	Spin-	spin-
8AAA\	.	.	.	.	.	.	.	.
8EE\	4r	<	.	.	.	.	.	.
8GG\J	.	.	.	.	.	.	.	.
=31	=31	=31	=31	=31	=31	=31	=31	=31
8AA\L	2r	.	4.a/]	.	.	.	.	.
8E\	.	.	.	.	.	.	.	.
!	!	!LO:MO:mod=[[	!	!	!	!	!	!
8G\	.	[	.	.	.	.	.	.
8A\J)	.	.	8a/	.	-dzy	-dzy.	-nen	-nen.
!!LO:LB:g=original
=32	=32	=32	=32	=32	=32	=32	=32	=32
*	*^	*	*	*	*	*	*	*
2r	(8e/L	4e\	.	2r	.	.	.	.	.
.	8g/	.	>	.	.	.	.	.	.
.	8a/	4ryyyy	.	.	.	.	.	.	.
.	8e/J	.	.	.	.	.	.	.	.
*	*v	*v	*	*	*	*	*	*	*
=33	=33	=33	=33	=33	=33	=33	=33	=33
2r	8g/L	.	2r	.	.	.	.	.
.	8a/	.	.	.	.	.	.	.
.	8e/	.	.	.	.	.	.	.
.	8g/J	.	.	.	.	.	.	.
=34	=34	=34	=34	=34	=34	=34	=34	=34
2r	8a/L	.	2r	.	.	.	.	.
.	8e/	.	.	.	.	.	.	.
!	!	!LO:MO:mod=]]	!	!	!	!	!	!
.	8g/	]	.	.	.	.	.	.
.	8a/J)	.	.	.	.	.	.	.
!LO:MO:mod=*Xped:null	!LO:MO:mod=*null:null	!	!	!	!	!	!	!
*null	*Xped	*	*	*	*	*	*	*
=35	=35	=35	=35	=35	=35	=35	=35	=35
!	!	!	!	!LO:DY:a	!	!	!	!
(4DD\	(>4dd 4a 4f/	pp	8a/	p	Za-	Za-	Wie-	Wie-
.	.	.	8dd\	.	-kwi-	-kwi-	-der	-der
4AA\	4cc 4a 4e/	.	8cc\	.	-tnę-	-tnę-	blüht	blüht
.	.	.	8cc\	.	-ły	-ły	der	der
=36	=36	=36	=36	=36	=36	=36	=36	=36
4D\	4b- 4f 4d/	.	8b-\	.	ró-	ró-	Ro-	Ro-
.	.	.	8f/	.	-že	-że	-sen	-sen
4F\)	4a 4f 4c/)	.	8a/	.	zno-	zno-	Schim-	Schim-
.	.	.	8a/	.	-wu	-wu,	-mer,	-mer,
!!LO:LB:g=original
=37	=37	=37	=37	=37	=37	=37	=37	=37
(4DD\	4g 4e-X 4B-/	.	8g/	.	nić	nić	nur	nur
.	.	.	8g/	.	się	się	kein	kein
4AA\	4en 4c#X 4A/	.	8e/	.	nie	nie	Spin-	Spin-
.	.	.	8a/	.	chce	chce	-ner	-ner
=38	=38	=38	=38	=38	=38	=38	=38	=38
*^	*	*	*	*	*	*	*	*
4A 4F/	2D\)	(>8d/L	<	4.a/	.	snuć	snuć.	glück	glück.
.	.	8e/	.	.	.	.	.	.	.
4d 4A/	.	8f/	.	.	.	.	.	.	.
!	!	!	!LO:MO:mod=[[	!	!	!	!	!	!
.	.	8a/J)	[	8r	.	.	.	.	.
*v	*v	*	*	*	*	*	*	*	*
=39	=39	=39	=39	=39	=39	=39	=39	=39
4A 4D\	4dd 4a 4f 4d/	.	8ff\	.	pró-	Pró-	Lieb-	Lieb-
.	.	.	8a/	.	-žno	-żno	-ster!	-ster!
4F 4FF\	4cc 4a 4e 4c/	.	8ee\	.	wo-	wo-	ruf	ruf
.	.	.	8ee\	.	-łam:	-łam:	ich,	ich,
=40	=40	=40	=40	=40	=40	=40	=40	=40
4F 4BB-\	4b- 4f 4d 4B-/	.	8.dd\	.	lu-	lu-	komm	komm
.	.	.	16f/	.	-by	-by	zu-	zu-
4D 4DD\	4a 4f 4c 4A/	.	4cc\	.	wróć!	wróć!	-rück!	-rück!
=41	=41	=41	=41	=41	=41	=41	=41	=41
4GG\	4g 4d 4B-< 4G</	.	8b-\	.	on	On	doch	Doch
.	.	.	8a/	.	nie	nie	der	der
4C 4CC\	4e-X 4c 4G</	.	8g/	.	wie-	wie-	glaubt's	glaubt
.	.	.	8a/	.	-rzy	-rzy	nun	mir
!!LO:PB:g=original
=42	=42	=42	=42	=42	=42	=42	=42	=42
(8DD\L	4.f#X 4.d 4.A< 4.F#<X/	.	4.f#X/	.	sło-	sło-	nim-	nim-
8AA\	.	.	.	.	.	.	.	.
8D\)	.	.	.	.	.	.	.	.
!	!	!	!LO:MO:mod=!LO&colon;TX&colon;a&colon;i&colon;t=rit.	!	!	!	!	!
!	!	!	!LO:TX:a:t=rit.:rj	!	!	!	!	!
8D\J	8r	.	8f#/	.	-wu	-wu.	-mer	-mer.
=43	=43	=43	=43	=43	=43	=43	=43	=43
2G 2GG\	2b- 2g 2d 2B-/	.	8g/	.	Pró-	Pró-	Lieb-	Lieb-
!	!	!	!	!LO:HP:a	!	!	!	!
.	.	.	8a/	<	-žno	-żno	-ster!	-ster!
.	.	.	8b-\	.	wo-	wo-	ruf	ruf
.	.	.	8dd\	[[	-łam:	-łam:	ich,	ich,
=44	=44	=44	=44	=44	=44	=44	=44	=44
!	!	!LO:MO:mod=!null:null	!	!	!	!	!	!
!	!	!LO:DY:t=sf.	!	!	!	!	!	!
2g 2e 2G\	2bb- 2gg 2dd 2b-\	sf	(8ee\L	.	lu-	lu-	Komm	komm
.	.	.	8dd\	.	.	.	.	.
!	!	!	!	!LO:HP:a	!	!	!	!
.	.	.	8ff\J)	>	.	.	.	.
.	.	.	(16ee\LL	.	-by	-by	zu-	zu-
.	.	.	16dd\JJ)	.	.	.	.	.
=45	=45	=45	=45	=45	=45	=45	=45	=45
!!!OMD:
!!!OMD: Lento
!	!LO:TX:b:t=lento:mod=	!	!LO:TX:a:t=lento:mod=	!	!	!	!	!
(<4f 4d\	(4aa 4ff 4dd 4a\	.	4.dd\	]	wróć!	wróć!	-rück!	-rück!
4B-\)	4dd 4b- 4f 4d/)	.	.	.	.	.	.	.
.	.	.	8r	.	.	.	.	.
=46	=46	=46	=46	=46	=46	=46	=46	=46
!	!	!	!	!LO:DY:a	!	!	!	!
!	!	!LO:DY:t= :mod=%s	!	!	!	!	!	!
!	!	!LO:MO:mod=!LO&colon;DY&colon;ed=brack	!	!	!	!	!	!
!	!	!null	!	!	!	!	!	!
(<4GG\	[4d< 4B-< 4G< 4D</	p	4.dd\	p	wróć!	Wróć!	Komm!	Komm!
4BB- 4BBB-\)	4d<] 4B-< 4F< 4D</	.	.	.	.	.	.	.
.	.	.	8r	.	.	.	.	.
!!LO:LB:g=original
=47	=47	=47	=47	=47	=47	=47	=47	=47
!!!OMD:
!!!OMD: A tempo
!	!LO:TX:a:t=a tempo:mod=	!	!LO:TX:a:t=a tempo:mod=	!	!	!	!	!
4FF\	4a 4d 4A</	.	8a/	.	On	On	Doch	Doch
.	.	.	8a/	.	nie	nie	der	der
4GG\	4g 4d 4B-</	.	8g/	.	wie-	wie-	glaubt's	glaubt
.	.	.	8g/	.	-rzy	-rzy	mir	mir
=48	=48	=48	=48	=48	=48	=48	=48	=48
4AA\	4c#<X 4A< 4G</	.	8e/	.	sło-	sło-	nim-	nim-
.	.	.	8f/	.	.	.	.	.
4D\	4d< 4A< 4F</	.	8d/	.	.	.	.	.
.	.	.	8f/	.	-wu	-wu.	-mer,	-mer.
=49	=49	=49	=49	=49	=49	=49	=49	=49
4FF\	4a 4c 4A</	.	8a/	.	on	On	doch	Doch
.	.	.	8a/	.	nie	nie	der	der
4GG\	4g 4e-X 4B-</	.	8g/	.	wie-	wie-	glaubt's	glaubt
.	.	.	8g/	.	-rzy	-rzy	mir	mir
=50	=50	=50	=50	=50	=50	=50	=50	=50
4AA\	4c#<X 4A< 4G</	.	8e/L	.	sło-	sło-	nim-	nim-
.	.	.	8f/J	.	.	.	.	.
8D\L	4d< 4A< 4F</	.	4d/	.	-wu.	-wu.	-mer.	-mer.
8AA\J	.	.	.	.	.	.	.	.
=51	=51	=51	=51	=51	=51	=51	=51	=51
!	!	!LO:DY:t= :mod=%s	!	!	!	!	!	!
!	!	!LO:MO:mod=!LO&colon;DY&colon;ed=	!	!	!	!	!	!
!	!	!null	!	!	!	!	!	!
4DD\	(>[>8A< [<8F</L	pp	2r	.	.	.	.	.
!	!	!LO:MO:mod=.	!	!	!	!	!	!
.	8d< 8A<] 8F</]J	pp	.	.	.	.	.	.
(>8AA\L	4c< 4A< 4E</)	.	.	.	.	.	.	.
8AAA\J)	.	.	.	.	.	.	.	.
!!LO:LB:g=original
=52	=52	=52	=52	=52	=52	=52	=52	=52
4DD\	[>8A<L [<8F</	.	2r	.	.	.	.	.
.	8dJ 8A<] 8F</]	.	.	.	.	.	.	.
!LO:SIC:s=(8AA\L:v	!	!	!	!	!	!	!	!
8AA\L	4c 4A< 4E</	.	.	.	.	.	.	.
!LO:SIC:s=8AAA\J):v	!	!	!	!	!	!	!	!
8AAA\J	.	.	.	.	.	.	.	.
=53	=53	=53	=53	=53	=53	=53	=53	=53
4DD\	[>8A<L [<8F</	.	2r	.	.	.	.	.
.	[>8d<J 8A<_> 8F</_<	.	.	.	.	.	.	.
8AA\L	4d<] 4A<] 4F</]	.	.	.	.	.	.	.
[8D\J	.	.	.	.	.	.	.	.
=54	=54	=54	=54	=54	=54	=54	=54	=54
*^	*	*	*	*	*	*	*	*
!	!	!	!LO:DY:a	!	!	!	!	!	!
!	!	!	!LO:MO:mod=.	!	!	!	!	!	!
2A;/	2D\]	2dd 2a 2f;/	pp	2r	.	.	.	.	.
*v	*v	*	*	*	*	*	*	*	*
==	==	==	==	==	==	==	==	==
*-	*-	*-	*-	*-	*-	*-	*-	*-
!!!system-decoration: <s1>{(s2,s3)}
!!!RDF**kern: > = above
!!!RDF**kern: < = below
!!!RDF**dynam: p = "p."
!!!RDF**dynam: pp = "pp."
!!!RDF**dynam: mf = "mf."
!!!filter-modern: sic -sq | shed -e "s/LO:DY:(a|b|rj)/LO:dy:$1/L" | shed -e "s/TX(.*):t=P:/tx$1:t=P:/LG" | modori -m | autostem -r | shed -e "s/yy//" | shed -k -e "s/\(y([^y])/($1/" | shed -e "s/-//B" | shed -k -e "s/[<>]//g" | shed -k -e "s/r[a-gA-G]+/r/D"
!!!ENC: Anastazja Marusiak
!!!END: 2021-12-02
!!!ENC: Andrzej Kubiczek
!!!END: 2021-12-17
!!!EED-modern: Antoni Szymański
!!!END-modern: 2022-09-07
!!!YEC: Copyright 2022 Narodowy Instytut Fryderyka Chopina (https://polishscores.org)
!!!YEM: License CC-BY-4.0 (https://creativecommons.org/licenses/by/4.0)
